src/assets/filled/Money4.svg

<?xml version="1.0" encoding="UTF-8"?>
<svg width="24" height="24" viewBox="0 0 24 24" xmlns="http://www.w3.org/2000/svg">
 <path d="m17 3.5h-10c-3 0-5 1.5-5 5v7c0 3.5 2 5 5 5h10c3 0 5-1.5 5-5v-7c0-3.5-2-5-5-5zm-13.25 5c0-1.79 1.46-3.25 3.25-3.25h1.5c0.41 0 0.75 0.34 0.75 0.75s-0.34 0.75-0.75 0.75h-1.5c-0.96 0-1.75 0.79-1.75 1.75v1.5c0 0.41-0.34 0.75-0.75 0.75s-0.75-0.34-0.75-0.75v-1.5zm4.75 10.25h-1.5c-1.79 0-3.25-1.46-3.25-3.25v-1.5c0-0.41 0.34-0.75 0.75-0.75s0.75 0.34 0.75 0.75v1.5c0 0.96 0.79 1.75 1.75 1.75h1.5c0.41 0 0.75 0.34 0.75 0.75s-0.34 0.75-0.75 0.75zm3.5-3.75c-1.66 0-3-1.34-3-3s1.34-3 3-3 3 1.34 3 3-1.34 3-3 3zm8.25 0.5c0 1.79-1.46 3.25-3.25 3.25h-1.5c-0.41 0-0.75-0.34-0.75-0.75s0.34-0.75 0.75-0.75h1.5c0.96 0 1.75-0.79 1.75-1.75v-1.5c0-0.41 0.34-0.75 0.75-0.75s0.75 0.34 0.75 0.75v1.5zm0-5.5c0 0.41-0.34 0.75-0.75 0.75s-0.75-0.34-0.75-0.75v-1.5c0-0.96-0.79-1.75-1.75-1.75h-1.5c-0.41 0-0.75-0.34-0.75-0.75s0.34-0.75 0.75-0.75h1.5c1.79 0 3.25 1.46 3.25 3.25v1.5z"/>
</svg>

<svg width="24" height="24" viewBox="0 0 24 24"  xmlns="http://www.w3.org/2000/svg">
<path d="M17 3.5H7C4 3.5 2 5 2 8.5V15.5C2 19 4 20.5 7 20.5H17C20 20.5 22 19 22 15.5V8.5C22 5 20 3.5 17 3.5ZM3.75 8.5C3.75 6.71 5.21 5.25 7 5.25H8.5C8.91 5.25 9.25 5.59 9.25 6C9.25 6.41 8.91 6.75 8.5 6.75H7C6.04 6.75 5.25 7.54 5.25 8.5V10C5.25 10.41 4.91 10.75 4.5 10.75C4.09 10.75 3.75 10.41 3.75 10V8.5ZM8.5 18.75H7C5.21 18.75 3.75 17.29 3.75 15.5V14C3.75 13.59 4.09 13.25 4.5 13.25C4.91 13.25 5.25 13.59 5.25 14V15.5C5.25 16.46 6.04 17.25 7 17.25H8.5C8.91 17.25 9.25 17.59 9.25 18C9.25 18.41 8.91 18.75 8.5 18.75ZM12 15C10.34 15 9 13.66 9 12C9 10.34 10.34 9 12 9C13.66 9 15 10.34 15 12C15 13.66 13.66 15 12 15ZM20.25 15.5C20.25 17.29 18.79 18.75 17 18.75H15.5C15.09 18.75 14.75 18.41 14.75 18C14.75 17.59 15.09 17.25 15.5 17.25H17C17.96 17.25 18.75 16.46 18.75 15.5V14C18.75 13.59 19.09 13.25 19.5 13.25C19.91 13.25 20.25 13.59 20.25 14V15.5ZM20.25 10C20.25 10.41 19.91 10.75 19.5 10.75C19.09 10.75 18.75 10.41 18.75 10V8.5C18.75 7.54 17.96 6.75 17 6.75H15.5C15.09 6.75 14.75 6.41 14.75 6C14.75 5.59 15.09 5.25 15.5 5.25H17C18.79 5.25 20.25 6.71 20.25 8.5V10Z" />
</svg>
